Newaita-dark/actions/24/plugins.svg

<svg height="24" viewBox="0 0 24 24" width="24" xmlns="http://www.w3.org/2000/svg"><path d="m5.457031 3.660156c-.550781 0-.992187.441406-.992187.992188v1.984375h-.496094c-1.097656 0-1.984375.886719-1.984375 1.984375v9.921875c0 1.101562.886719 1.984375 1.984375 1.984375h15.875c1.101562 0 1.988281-.882813 1.988281-1.984375v-9.921875c0-1.097656-.886719-1.984375-1.988281-1.984375h-.496094v-1.984375c0-.550782-.441406-.992188-.992187-.992188h-3.96875c-.546875 0-.992188.441406-.992188.992188v1.984375h-2.976562v-1.984375c0-.550782-.441407-.992188-.992188-.992188zm1.488281 1.984375h.992188c.277344 0 .496094.222657.496094.496094v.496094h-1.984375v-.496094c0-.273437.222656-.496094.496093-.496094zm8.929688 0h.992188c.277343 0 .496093.222657.496093.496094v.496094h-1.984375v-.496094c0-.273437.222656-.496094.496094-.496094zm-10.914062 2.976563h13.890624c.550782 0 .992188.445312.992188.992187v7.9375c0 .550781-.441406.992188-.992188.992188h-13.890624c-.550782 0-.992188-.441407-.992188-.992188v-7.9375c0-.546875.441406-.992187.992188-.992187zm0 0" fill="#e0e0e0"/></svg>

<?xml version="1.0" encoding="UTF-8"?>
<svg xmlns="http://www.w3.org/2000/svg" xmlns:xlink="http://www.w3.org/1999/xlink" width="24px" height="24px" viewBox="0 0 24 24" version="1.1">
<g id="surface1">
<path style=" stroke:none;fill-rule:nonzero;fill:rgb(87.843138%,87.843138%,87.843138%);fill-opacity:1;" d="M 5.457031 3.660156 C 4.90625 3.660156 4.464844 4.101562 4.464844 4.652344 L 4.464844 6.636719 L 3.96875 6.636719 C 2.871094 6.636719 1.984375 7.523438 1.984375 8.621094 L 1.984375 18.542969 C 1.984375 19.644531 2.871094 20.527344 3.96875 20.527344 L 19.84375 20.527344 C 20.945312 20.527344 21.832031 19.644531 21.832031 18.542969 L 21.832031 8.621094 C 21.832031 7.523438 20.945312 6.636719 19.84375 6.636719 L 19.347656 6.636719 L 19.347656 4.652344 C 19.347656 4.101562 18.90625 3.660156 18.355469 3.660156 L 14.386719 3.660156 C 13.839844 3.660156 13.394531 4.101562 13.394531 4.652344 L 13.394531 6.636719 L 10.417969 6.636719 L 10.417969 4.652344 C 10.417969 4.101562 9.976562 3.660156 9.425781 3.660156 Z M 6.945312 5.644531 L 7.9375 5.644531 C 8.214844 5.644531 8.433594 5.867188 8.433594 6.140625 L 8.433594 6.636719 L 6.449219 6.636719 L 6.449219 6.140625 C 6.449219 5.867188 6.671875 5.644531 6.945312 5.644531 Z M 15.875 5.644531 L 16.867188 5.644531 C 17.144531 5.644531 17.363281 5.867188 17.363281 6.140625 L 17.363281 6.636719 L 15.378906 6.636719 L 15.378906 6.140625 C 15.378906 5.867188 15.601562 5.644531 15.875 5.644531 Z M 4.960938 8.621094 L 18.851562 8.621094 C 19.402344 8.621094 19.84375 9.066406 19.84375 9.613281 L 19.84375 17.550781 C 19.84375 18.101562 19.402344 18.542969 18.851562 18.542969 L 4.960938 18.542969 C 4.410156 18.542969 3.96875 18.101562 3.96875 17.550781 L 3.96875 9.613281 C 3.96875 9.066406 4.410156 8.621094 4.960938 8.621094 Z M 4.960938 8.621094 "/>
</g>
</svg>
